X:37
T:37.  Patty on the Turnpike
C:c 2006 Harry Bolick  
R:Reel
O:United States
A:Hastings-On-Hudson, New York
M:4/4
L:1/8
Q:350
K:C
|: "C" cBAB c4|  g2a2 g3e |  aged  c2 AB | cBAG FGA2 |
    cBAB c4|  g2a2 g3e | aged  "G" c2AB "C" |c8:|
"F" F2A2 cBA2 |"G" G2B2  dcA2 |"F" F2A2 cde2 |"Am" a2g2 "G"fed2 |
"F" F2A2 cBA2 |"G" G2B2  dcA2  | "F" f2e2 "G"dcB2 |"C"  c8 :|
